X:1
T:Polska efter Ante Falk
R:Polska
S:Efter Ante Falk
O:Offerdal, Jämtland
D:Ske ma dans... : Låtar från föllingebygden efter Mats och Ulf Andersson
Z:Håkan Lidén 2009-11-27
Q:1/4=132
M:3/4
L:1/8
K:D
|: A>d (3faf d>d | (3ABA (3FAF (3DEF | G>B B<G G>E | E>A A<F F>D | 
A>d (3faf d>d | (3ABA (3FAF (3DEF | G>B B<G G>E | (3A,CE D4 :|
|: A>d (3faf d>f | a>a (3faf (3dfb | g>g (3ege (3cBc | d>B (3BAG B>A | 
A>d (3faf d>f | a>a (3faf (3dfb | g>g (3ege (3cec | (3ABc d4 :|

